static/img/menus/ico-air-cloud.svg

<svg width="16" height="16" viewBox="0 0 16 16" fill="none" xmlns="http://www.w3.org/2000/svg">
<path d="M4.01632 12.9189H4.68299C4.68299 12.5657 4.40753 12.2738 4.05493 12.2533L4.01632 12.9189ZM3.51006 5.87893L3.64339 6.53213C3.88639 6.48253 4.08176 6.30214 4.15056 6.06387L3.51006 5.87893ZM11.9727 5.61096L11.3453 5.83637C11.4334 6.08167 11.6564 6.25311 11.9161 6.27522L11.9727 5.61096ZM11.553 12.9235L11.5717 12.2571C11.3917 12.2521 11.2173 12.32 11.0883 12.4455C10.9592 12.5711 10.8863 12.7435 10.8863 12.9235H11.553ZM11.553 12.9249V13.5916C11.9212 13.5916 12.2197 13.2931 12.2197 12.9249H11.553ZM4.01632 12.9249H3.34965C3.34965 13.2931 3.64813 13.5916 4.01632 13.5916V12.9249ZM4.05493 12.2533C2.53733 12.1653 1.33333 10.906 1.33333 9.36593H0C0 11.6165 1.75904 13.4557 3.97771 13.5845L4.05493 12.2533ZM1.33333 9.36593C1.33333 7.96853 2.32501 6.80127 3.64339 6.53213L3.37672 5.22573C1.4499 5.61906 0 7.32247 0 9.36593H1.33333ZM4.15056 6.06387C4.60613 4.48612 6.06167 3.33333 7.78473 3.33333V2C5.45193 2 3.48547 3.56095 2.86956 5.69399L4.15056 6.06387ZM7.78473 3.33333C9.42353 3.33333 10.8206 4.37606 11.3453 5.83637L12.6001 5.38554C11.8912 3.41261 10.0038 2 7.78473 2V3.33333ZM11.9161 6.27522C13.45 6.40582 14.6547 7.6932 14.6547 9.26127H15.9881C15.9881 6.99473 14.2472 5.13554 12.0292 4.94669L11.9161 6.27522ZM14.6547 9.26127C14.6547 10.9165 13.3129 12.2583 11.6577 12.2583V13.5916C14.0493 13.5916 15.9881 11.6529 15.9881 9.26127H14.6547ZM11.6577 12.2583C11.6289 12.2583 11.6003 12.2579 11.5717 12.2571L11.5343 13.5899C11.5753 13.5911 11.6165 13.5916 11.6577 13.5916V12.2583ZM10.8863 12.9235V12.9249H12.2197V12.9235H10.8863ZM11.553 12.2583H4.01632V13.5916H11.553V12.2583ZM4.68299 12.9249V12.9189H3.34965V12.9249H4.68299Z" fill="currentColor"/>
<path fill-rule="evenodd" clip-rule="evenodd" d="M4.01632 12.9189C2.14818 12.8105 0.666664 11.2613 0.666664 9.36593C0.666664 7.64546 1.88745 6.21015 3.51006 5.87893C4.0458 4.02354 5.7568 2.66666 7.78473 2.66666C9.71366 2.66666 11.3559 3.89433 11.9727 5.61096C13.8486 5.77068 15.3214 7.344 15.3214 9.26126C15.3214 11.2847 13.6811 12.9249 11.6577 12.9249C11.6227 12.9249 11.5878 12.9245 11.553 12.9235V12.9249H4.01632V12.9189Z" fill="white"/>
<path d="M5.7396 8.08567C5.7396 6.885 6.71293 5.91162 7.91367 5.91162C8.92667 5.91162 9.77787 6.60447 10.0192 7.54213" stroke="currentColor"/>
<path d="M10.6109 8.00514H9.04066L10.6109 6.43498V8.00514Z" fill="currentColor"/>
<path d="M10.1117 8.448C10.1117 9.64873 9.13826 10.6221 7.9376 10.6221C6.9246 10.6221 6.07337 9.9292 5.83203 8.99153" stroke="currentColor"/>
<path d="M5.21989 8.52853H6.79007L5.21989 10.0987V8.52853Z" fill="currentColor"/>
</svg>

<svg xmlns="http://www.w3.org/2000/svg" width="16" height="16" fill="none" viewBox="0 0 16 16"><path fill="currentColor" d="M4.016 12.919h.667a.667.667 0 0 0-.628-.666zm-.506-7.04.133.653a.67.67 0 0 0 .508-.468zm8.463-.268-.628.225a.67.67 0 0 0 .571.44zm-.42 7.313.019-.667a.667.667 0 0 0-.686.667zm0 0v.668a.667.667 0 0 0 .667-.667zm-7.537 0H3.35c0 .37.298.668.666.668zm.039-.67a2.89 2.89 0 0 1-2.722-2.888H0c0 2.25 1.759 4.09 3.978 4.219zM1.333 9.365c0-1.397.992-2.565 2.31-2.834l-.266-1.306A4.23 4.23 0 0 0 0 9.366zm2.818-3.302a3.784 3.784 0 0 1 3.634-2.73V2A5.12 5.12 0 0 0 2.87 5.694zm3.634-2.73a3.78 3.78 0 0 1 3.56 2.502l1.255-.45A5.12 5.12 0 0 0 7.785 2zm4.131 2.941a2.997 2.997 0 0 1 2.739 2.986h1.333a4.33 4.33 0 0 0-3.959-4.314zm2.739 2.986a2.997 2.997 0 0 1-2.997 2.997v1.334a4.33 4.33 0 0 0 4.33-4.33zm-2.997 2.997h-.086l-.038 1.332.124.002zm-.772.666h1.334zm.667-.666H4.016v1.334h7.537zm-6.87.667v-.006H3.35v.006z"/><path fill="#fff" fill-rule="evenodd" d="M4.016 12.919a3.56 3.56 0 0 1-.506-7.04 4.45 4.45 0 0 1 8.463-.268 3.664 3.664 0 0 1-.42 7.313H4.016z" clip-rule="evenodd"/><path stroke="currentColor" d="M5.74 8.086a2.174 2.174 0 0 1 4.28-.544"/><path fill="currentColor" d="M10.61 8.005H9.04l1.57-1.57z"/><path stroke="currentColor" d="M10.112 8.448a2.174 2.174 0 0 1-4.28.544"/><path fill="currentColor" d="M5.22 8.529h1.57l-1.57 1.57z"/></svg>
